public/assets/usdc.svg

<?xml version="1.0" encoding="UTF-8"?>
<svg xmlns="http://www.w3.org/2000/svg" xmlns:xlink="http://www.w3.org/1999/xlink" width="32px" height="32px" viewBox="0 0 32 32" version="1.1">
<g id="surface1">
<path style=" stroke:none;fill-rule:nonzero;fill:rgb(15.294118%,45.882353%,79.215686%);fill-opacity:1;" d="M 16 32 C 24.867188 32 32 24.867188 32 16 C 32 7.132812 24.867188 0 16 0 C 7.132812 0 0 7.132812 0 16 C 0 24.867188 7.132812 32 16 32 Z M 16 32 "/>
<path style=" stroke:none;fill-rule:nonzero;fill:rgb(100%,100%,100%);fill-opacity:1;" d="M 20.398438 18.535156 C 20.398438 16.199219 19 15.398438 16.199219 15.066406 C 14.199219 14.800781 13.800781 14.265625 13.800781 13.332031 C 13.800781 12.398438 14.464844 11.800781 15.800781 11.800781 C 17 11.800781 17.667969 12.199219 18 13.199219 C 18.066406 13.398438 18.265625 13.535156 18.464844 13.535156 L 19.535156 13.535156 C 19.800781 13.535156 20 13.332031 20 13.066406 L 20 13 C 19.734375 11.535156 18.535156 10.398438 17 10.265625 L 17 8.667969 C 17 8.398438 16.800781 8.199219 16.464844 8.132812 L 15.464844 8.132812 C 15.199219 8.132812 15 8.332031 14.933594 8.667969 L 14.933594 10.199219 C 12.933594 10.464844 11.667969 11.800781 11.667969 13.464844 C 11.667969 15.667969 13 16.535156 15.800781 16.867188 C 17.667969 17.199219 18.265625 17.601562 18.265625 18.667969 C 18.265625 19.734375 17.332031 20.464844 16.066406 20.464844 C 14.332031 20.464844 13.734375 19.734375 13.535156 18.734375 C 13.464844 18.464844 13.265625 18.332031 13.066406 18.332031 L 11.933594 18.332031 C 11.667969 18.332031 11.464844 18.535156 11.464844 18.800781 L 11.464844 18.867188 C 11.734375 20.535156 12.800781 21.734375 15 22.066406 L 15 23.667969 C 15 23.933594 15.199219 24.132812 15.535156 24.199219 L 16.535156 24.199219 C 16.800781 24.199219 17 24 17.066406 23.667969 L 17.066406 22.066406 C 19.066406 21.734375 20.398438 20.332031 20.398438 18.535156 Z M 20.398438 18.535156 "/>
<path style=" stroke:none;fill-rule:nonzero;fill:rgb(100%,100%,100%);fill-opacity:1;" d="M 12.601562 25.535156 C 7.398438 23.667969 4.734375 17.867188 6.667969 12.734375 C 7.667969 9.933594 9.867188 7.800781 12.601562 6.800781 C 12.867188 6.667969 13 6.464844 13 6.132812 L 13 5.199219 C 13 4.933594 12.867188 4.734375 12.601562 4.667969 C 12.535156 4.667969 12.398438 4.667969 12.332031 4.734375 C 6 6.734375 2.535156 13.464844 4.535156 19.800781 C 5.734375 23.535156 8.601562 26.398438 12.332031 27.601562 C 12.601562 27.734375 12.867188 27.601562 12.933594 27.332031 C 13 27.265625 13 27.199219 13 27.066406 L 13 26.132812 C 13 25.933594 12.800781 25.667969 12.601562 25.535156 Z M 19.667969 4.734375 C 19.398438 4.601562 19.132812 4.734375 19.066406 5 C 19 5.066406 19 5.132812 19 5.265625 L 19 6.199219 C 19 6.464844 19.199219 6.734375 19.398438 6.867188 C 24.601562 8.734375 27.265625 14.535156 25.332031 19.667969 C 24.332031 22.464844 22.132812 24.601562 19.398438 25.601562 C 19.132812 25.734375 19 25.933594 19 26.265625 L 19 27.199219 C 19 27.464844 19.132812 27.667969 19.398438 27.734375 C 19.464844 27.734375 19.601562 27.734375 19.667969 27.667969 C 26 25.667969 29.464844 18.933594 27.464844 12.601562 C 26.265625 8.800781 23.332031 5.933594 19.667969 4.734375 Z M 19.667969 4.734375 "/>
</g>
</svg>

<svg xmlns="http://www.w3.org/2000/svg" viewBox="0 0 32 32"><path d="M16 32c8.867 0 16-7.133 16-16S24.867 0 16 0 0 7.133 0 16s7.133 16 16 16Zm0 0" fill="#2775ca"/><path d="M20.398 18.535c0-2.336-1.398-3.137-4.199-3.469-2-.265-2.398-.8-2.398-1.734 0-.934.664-1.531 2-1.531 1.199 0 1.867.398 2.199 1.398.066.2.266.336.465.336h1.07a.457.457 0 0 0 .465-.469V13a3.33 3.33 0 0 0-3-2.734V8.668c0-.27-.2-.469-.535-.535h-1c-.266 0-.465.199-.531.535v1.531c-2 .266-3.266 1.602-3.266 3.266 0 2.203 1.332 3.07 4.133 3.402 1.867.332 2.465.735 2.465 1.801 0 1.066-.934 1.797-2.2 1.797-1.734 0-2.332-.73-2.53-1.73-.071-.27-.27-.403-.47-.403h-1.132a.46.46 0 0 0-.47.469v.066c.27 1.668 1.337 2.867 3.536 3.2v1.601c0 .266.2.465.535.531h1c.266 0 .465-.199.531-.531v-1.602c2-.332 3.332-1.734 3.332-3.53Zm0 0" fill="#fff"/><path d="M12.602 25.535c-5.204-1.867-7.868-7.668-5.934-12.8 1-2.801 3.2-4.934 5.934-5.934.265-.133.398-.336.398-.668v-.934c0-.265-.133-.465-.398-.531-.067 0-.204 0-.27.066-6.332 2-9.797 8.73-7.797 15.067a11.998 11.998 0 0 0 7.797 7.8c.27.133.535 0 .602-.269.066-.066.066-.133.066-.266v-.933c0-.2-.2-.465-.398-.598Zm7.066-20.8c-.27-.133-.535 0-.602.265-.066.066-.066.133-.066.266v.933c0 .266.2.535.398.668 5.204 1.867 7.868 7.668 5.934 12.801-1 2.797-3.2 4.934-5.934 5.934-.265.132-.398.332-.398.664v.933c0 .266.133.469.398.535.067 0 .204 0 .27-.066 6.332-2 9.797-8.734 7.797-15.066a12.088 12.088 0 0 0-7.797-7.868Zm0 0" fill="#fff"/></svg>
